X:16
T:Jack's the Lad
T:Divine Wind
M:4/4
L:1/8
R:Hornpipe
K:G
P:A
GF | G2 D2 D2 GF | GBAG ABAG | A2 E2 E2 AG | FA d2 d2 de |!
fedc edcB | dcBA GFED | EGFA GBAc | B2 G2 G2:|!
P:B
|:dc | Bdgd Bdgd | e2 c2 c2 AG | FAdA FAdA | B2 G2 G2 de |!
fedc edcB | dcBA GFED | EGFA GBAc | B2 G2 G2 :|

